X:1
T:Title
%%score { ( 1 3 ) | 2 }
L:1/8
M:4/4
K:G
V:1 treble nm="Grand Piano"
V:3 treble 
V:2 bass 
V:1
 z4 z2[Q:1/4=100] G>A | B>B B>B c2 B2 | B>A G>A B3 c | d<d d>e d2 B2 | A6 G>A | B>B B>B c2 B2 | %6
 B>A G>A B2 d>B | A2 G2 [DF]2 [^CE]2 | D8[K:bass] | %9
 [B,D]<[K:treble][B,D] [B,G]>[CA] [DB]>[DB] [CDA]>[B,DG] | B2 d2 d4 | [B,D]>[B,D] [DG]>A B2 B2 | %12
 z4 [FA]4[K:bass] | D<D[K:treble] G>A B>B A>G | B2 d2 d4 | [Ge]>[Ge] [Ge]>[Ge] d>d B>G | %16
[M:3/4] [DGB]2 [CDA]2 [B,DG]2 |] %17
V:2
 z4 z2 [G,B,]>[G,C] | [G,D]>[G,D] [G,D]>[G,D] [G,E]2 [G,D]2 | %2
 [D,G,D]>[D,CD] [D,B,D]>[D,F,D][K:treble] [G,D]3 [G,A,D] | %3
 [G,B,G]<[G,B,G] [G,B,G]>[G,CG] [G,B,G]2[K:bass] [G,D]2 | [D,F,D]6 [G,B,]>[G,C] | %5
 [G,D]>[G,D] [G,D]>[G,D] [G,E]2 [G,D]2 | %6
 [D,G,D]>[D,CD] [D,B,D]>[D,F,D][K:treble] [G,D]2 [G,B,D]>[G,DG] | %7
 [A,DF]2 [A,E]2[K:bass] [A,,A,]2 [A,,G,]2 | [D,F,]2 C,>C, B,,<B,, A,,<A,, | %9
 [G,,G,]<[G,,G,] [G,,G,]>[G,,G,] [G,,G,]>[G,,G,] G,,>G,, | [G,DG]2 [G,B,G]2 [G,B,G]4 | %11
 [G,,G,]>[G,,G,] [B,,G,]>[D,F,D] [G,D]2 [G,D]2 | [D,D]>[D,D] [D,D]>[D,D] [D,D]4 | %13
 [G,B,]<[G,B,] [G,B,]>[K:treble][G,C] [G,D]>[G,D] [G,CD]>[G,B,D] | [G,DG]2 [G,B,G]2 [G,B,G]4 | %15
 [C,C]>[D,C] [E,C]>[F,C][K:treble] [G,B,G]>[G,B,G] [G,DG]>[K:bass][G,B,] |[M:3/4] D,2 D,2 G,,2 |] %17
V:3
 x8 | x8 | x8 | x8 | x8 | x8 | x8 | x8 | z2 C>C[K:bass] B,<B, A,<A, | x/[K:treble] x15/2 | x8 | %11
 x8 | [GB]>[FA] [FA]>[EG] z z/[K:bass] C,/ B,,>A,, | x2[K:treble] x6 | x8 | x8 |[M:3/4] x6 |] %17

